overrides/.icons/option/feat-template.svg

<?xml version="1.0" encoding="UTF-8" standalone="no"?>
<svg
   viewBox="0 0 24 24"
   version="1.1"
   id="svg1"
   sodipodi:docname="feat-template.svg"
   inkscape:version="1.3.2 (091e20e, 2023-11-25, custom)"
   xml:space="preserve"
   xmlns:inkscape="http://www.inkscape.org/namespaces/inkscape"
   xmlns:sodipodi="http://sodipodi.sourceforge.net/DTD/sodipodi-0.dtd"
   xmlns="http://www.w3.org/2000/svg"
   xmlns:svg="http://www.w3.org/2000/svg"><defs
     id="defs1" /><sodipodi:namedview
     id="namedview1"
     pagecolor="#ffffff"
     bordercolor="#111111"
     borderopacity="1"
     inkscape:showpageshadow="0"
     inkscape:pageopacity="0"
     inkscape:pagecheckerboard="1"
     inkscape:deskcolor="#d1d1d1"
     inkscape:zoom="15.291184"
     inkscape:cx="6.9647975"
     inkscape:cy="10.038464"
     inkscape:window-width="1366"
     inkscape:window-height="697"
     inkscape:window-x="-8"
     inkscape:window-y="-8"
     inkscape:window-maximized="1"
     inkscape:current-layer="svg1" /><path
     id="path1"
     d="M 7 2 C 5.9000033 2 5 2.9000033 5 4 L 5 20 C 5 21.099997 5.9000033 22 7 22 L 17 22 C 18.099997 22 19 21.099997 19 20 L 19 4 C 19 2.9000033 18.099997 2 17 2 L 7 2 z " /></svg>

<?xml version="1.0" encoding="UTF-8"?>
<svg id="svg1" version="1.1" viewBox="0 0 24 24" xml:space="preserve" xmlns="http://www.w3.org/2000/svg"><path id="path1" d="m7 2c-1.1 0-2 0.9-2 2v16c0 1.1 0.9 2 2 2h10c1.1 0 2-0.9 2-2v-16c0-1.1-0.9-2-2-2h-10z"/></svg>
